src/assets/icons/regular/reinstall_sign.svg

<svg id="reinstall-sign" xmlns="http://www.w3.org/2000/svg" xmlns:xlink="http://www.w3.org/1999/xlink"
     viewBox="0 0 377 535" shape-rendering="geometricPrecision" text-rendering="geometricPrecision">
    <style>
        <![CDATA[#reinstall-sign-arrow_to {animation: reinstall-sign-arrow_to__to 10000ms linear infinite normal forwards}@keyframes reinstall-sign-arrow_to__to { 0% {transform: translate(187.689995px,187.739105px)} 36% {transform: translate(187.689995px,187.739105px);animation-timing-function: cubic-bezier(0.68,-0.55,0.265,1.55)} 44% {transform: translate(187.689995px,147.739105px);animation-timing-function: cubic-bezier(0.68,-0.55,0.265,1.55)} 51% {transform: translate(187.689995px,187.739105px)} 100% {transform: translate(187.689995px,187.739105px)}}]]></style>
    <path id="reinstall-sign-path1"
          d="M152.058,54.9471h-74.058c-33.137,0-60,26.8629-60,59.9999v341.804c0,33.137,26.863,60,60,60h220.115c33.138,0,60-26.863,60-60l.001-341.804c0-33.137-26.863-59.9999-60.001-59.9999h-74.057v35.9999h-72v-35.9999Z"
          clip-rule="evenodd" fill="#fff" fill-rule="evenodd"/>
    <path id="reinstall-sign-path2"
          d="M78,54.9471v18-18Zm74.058,0h18v-18h-18v18ZM18,114.947h-17.999969h17.999969Zm0,341.804h-18h18Zm60,60v-18v18Zm220.115,0v18-18Zm60-60h-18h18Zm.001-341.804h18v0h-18ZM298.115,54.9471v-18v18Zm-74.057,0v-18h-18v18h18Zm0,35.9999v18h18v-18h-18Zm-72,0h-18v18h18v-18ZM78,72.9471h74.058v-36h-74.058v36ZM36,114.947c0-23.1959,18.8041-41.9999,42-41.9999v-36c-43.0782,0-77.999966,34.9218-77.999969,77.9999h35.999969Zm0,341.804v-341.804h-35.999969L0,456.751h36Zm42,42c-23.1959,0-42-18.804-42-42h-36c-.000004,43.078,34.9218,78,78,78v-36Zm220.115,0h-220.115v36h220.115v-36Zm42-42c0,23.196-18.804,42-42,42v36c43.079,0,78-34.922,78-78h-36Zm.001-341.804l-.001,341.804h36l.001-341.804h-36ZM298.115,72.9471c23.196,0,42.001,18.8041,42.001,41.9999h36c0-43.0781-34.922-77.9999-78.001-77.9999v36Zm-74.057,0h74.057v-36h-74.057v36Zm-18-18v35.9999h36v-35.9999h-36Zm18,17.9999h-72v36h72v-36Zm-54,18v-35.9999h-36v35.9999h36Z"
          fill="#132c45"/>
    <g id="reinstall-sign-arrow_to" transform="translate(187.689995,187.739105)">
        <g id="reinstall-sign-arrow" transform="translate(-187.689994,-187.739105)">
            <path id="reinstall-sign-path3" d="M187.442,90.0842v195.2798" fill="none" stroke="#132c45" stroke-width="36"
                  stroke-miterlimit="16"/>
            <path id="reinstall-sign-path4" d="M273.054,200.03L187.69,285.394L102.326,200.03" fill="none"
                  stroke="#132c45" stroke-width="36" stroke-miterlimit="16"/>
        </g>
    </g>
    <rect id="reinstall-sign-rect1" width="72" height="72" rx="0" ry="0" transform="translate(152.058 18.947)"
          fill="#50e3c2" stroke="#132c45" stroke-width="36"/>
    <rect id="reinstall-sign-rect2" width="72" height="72" rx="36" ry="36" transform="matrix(-1 0 0-1 223.442 432.28)"
          fill="#50e3c2" stroke="#132c45" stroke-width="36"/>
</svg>

<svg width="377" height="535" viewBox="0 0 377 535" fill="none" xmlns="http://www.w3.org/2000/svg">
    <path fill-rule="evenodd" clip-rule="evenodd" d="M152.058 54.9471L78 54.9471C44.863 54.9471 18 81.81 18 114.947L18 456.751C18 489.888 44.863 516.751 78 516.751L298.115 516.751C331.253 516.751 358.115 489.888 358.115 456.751L358.116 114.947C358.116 81.81 331.253 54.9471 298.115 54.9471L224.058 54.9471V90.947H152.058V54.9471Z" fill="white"/>
    <path d="M78 54.9471L78 72.9471L78 54.9471ZM152.058 54.9471H170.058V36.9471L152.058 36.9471L152.058 54.9471ZM18 114.947L2.98814e-05 114.947L18 114.947ZM18 456.751L0 456.751L18 456.751ZM78 516.751L78 498.751H78V516.751ZM298.115 516.751L298.115 534.751H298.115V516.751ZM358.115 456.751L340.115 456.751V456.751H358.115ZM358.116 114.947L376.116 114.947V114.947H358.116ZM298.115 54.9471L298.115 36.9471L298.115 54.9471ZM224.058 54.9471L224.058 36.9471L206.058 36.9471V54.9471H224.058ZM224.058 90.947V108.947H242.058V90.947H224.058ZM152.058 90.947H134.058V108.947H152.058V90.947ZM78 72.9471L152.058 72.9471L152.058 36.9471L78 36.9471L78 72.9471ZM36 114.947C36 91.7511 54.8041 72.9471 78 72.9471L78 36.9471C34.9218 36.9471 3.36475e-05 71.8689 2.98814e-05 114.947L36 114.947ZM36 456.751L36 114.947L2.98814e-05 114.947L0 456.751L36 456.751ZM78 498.751C54.8041 498.751 36 479.947 36 456.751L0 456.751C-3.76602e-06 499.829 34.9218 534.751 78 534.751V498.751ZM298.115 498.751L78 498.751L78 534.751L298.115 534.751L298.115 498.751ZM340.115 456.751C340.115 479.947 321.311 498.751 298.115 498.751V534.751C341.194 534.751 376.115 499.829 376.115 456.751H340.115ZM340.116 114.947L340.115 456.751L376.115 456.751L376.116 114.947L340.116 114.947ZM298.115 72.9471C321.311 72.9471 340.116 91.7512 340.116 114.947H376.116C376.116 71.8689 341.194 36.9471 298.115 36.9471L298.115 72.9471ZM224.058 72.9471L298.115 72.9471L298.115 36.9471L224.058 36.9471L224.058 72.9471ZM206.058 54.9471V90.947H242.058V54.9471H206.058ZM224.058 72.947H152.058V108.947H224.058V72.947ZM170.058 90.947V54.9471H134.058V90.947H170.058Z" fill="#132C45"/>
    <path d="M187.442 90.0842L187.442 285.364" stroke="#132C45" stroke-width="36" stroke-miterlimit="16"/>
    <path d="M273.054 200.03L187.69 285.394L102.326 200.03" stroke="#132C45" stroke-width="36" stroke-miterlimit="16"/>
    <rect x="152.058" y="18.947" width="72" height="72" fill="#50E3C2" stroke="#132C45" stroke-width="36"/>
    <rect x="223.442" y="432.28" width="72" height="72" rx="36" transform="rotate(-180 223.442 432.28)" fill="#50E3C2" stroke="#132C45" stroke-width="36"/>
</svg>
